public/assets/img/svg/embed/add-a-story.svg

<?xml version="1.0" encoding="utf-8"?>
<!-- Generator: Adobe Illustrator 17.0.0, SVG Export Plug-In . SVG Version: 6.00 Build 0)  -->
<!DOCTYPE svg PUBLIC "-//W3C//DTD SVG 1.1//EN" "http://www.w3.org/Graphics/SVG/1.1/DTD/svg11.dtd">
<svg version="1.1" id="Layer_1" xmlns:sketch="http://www.bohemiancoding.com/sketch/ns"
	 xmlns="http://www.w3.org/2000/svg" xmlns:xlink="http://www.w3.org/1999/xlink" x="0px" y="0px" width="48px" height="48px"
	 viewBox="-1.5 -1.5 48 48" enable-background="new -1.5 -1.5 48 48" xml:space="preserve">
<title>Fill 152</title>
<desc>Created with Sketch.</desc>
<g id="UI" sketch:type="MSPage">
	<g id="Toolbox-Expanded" transform="translate(-447.000000, -208.000000)" sketch:type="MSArtboardGroup">
		<g id="Add-a-story-_x2B_-Fill-152" transform="translate(417.000000, 208.000000)" sketch:type="MSLayerGroup">
			<path id="Fill-152" sketch:type="MSShapeGroup" d="M56.348,12.39c-0.945,0-1.715,0.77-1.715,1.716s0.77,1.715,1.715,1.715
				c0.946,0,1.716-0.769,1.716-1.715S57.294,12.39,56.348,12.39L56.348,12.39z M56.133,14.106c0-0.119,0.097-0.216,0.215-0.216
				c0.119,0,0.216,0.097,0.216,0.216C56.564,14.344,56.133,14.346,56.133,14.106L56.133,14.106z M71.785,6.46h-1.971
				c-0.414,0-0.75,0.336-0.75,0.75s0.336,0.75,0.75,0.75h1.947c0.7,0.021,1.249,0.586,1.249,1.283v21.913
				c0,0.699-0.549,1.264-1.225,1.285h-4.81c-0.414,0-0.75,0.336-0.75,0.75v9.396L55.046,32.64c-0.137-0.121-0.314-0.188-0.498-0.189
				l-5.761-0.01c0,0,0,0-0.001,0c-0.414,0-0.749,0.335-0.75,0.749c-0.001,0.414,0.335,0.751,0.748,0.751l5.478,0.01l12.214,10.867
				c0.141,0.124,0.319,0.19,0.499,0.19c0.104,0,0.208-0.022,0.308-0.067c0.269-0.12,0.442-0.389,0.442-0.683V33.941h4.083
				c1.516-0.048,2.702-1.27,2.702-2.785V9.243C74.51,7.73,73.324,6.508,71.785,6.46L71.785,6.46z M41.445,12.39
				c-0.946,0-1.716,0.77-1.716,1.716s0.77,1.715,1.716,1.715s1.715-0.769,1.715-1.715S42.391,12.39,41.445,12.39L41.445,12.39z
				 M41.229,14.106c0-0.119,0.097-0.216,0.216-0.216s0.215,0.097,0.215,0.216C41.66,14.344,41.23,14.344,41.229,14.106
				L41.229,14.106z M65.121,27.483c1.537,0,2.788-1.25,2.788-2.785V2.785C67.909,1.249,66.658,0,65.121,0L32.703,0.002
				C31.187,0.05,30,1.271,30,2.785v21.913c0,1.516,1.187,2.738,2.726,2.784h4.06v10.317c0,0.295,0.173,0.563,0.443,0.684
				c0.099,0.044,0.203,0.066,0.307,0.066c0.18,0,0.358-0.065,0.498-0.19l12.215-10.867L65.121,27.483L65.121,27.483z M49.464,26.181
				l-11.178,9.947v-9.396c0-0.414-0.336-0.75-0.75-0.75l-4.787,0.001c-0.701-0.021-1.249-0.586-1.249-1.285V2.785
				c0-0.698,0.548-1.262,1.226-1.283L65.121,1.5c0.711,0,1.288,0.576,1.288,1.285v21.913c0,0.708-0.577,1.285-1.288,1.285
				l-15.159,0.009C49.779,25.992,49.601,26.059,49.464,26.181L49.464,26.181z M48.896,12.39c-0.946,0-1.716,0.77-1.716,1.716
				s0.77,1.715,1.716,1.715c0.944,0,1.712-0.769,1.712-1.715S49.84,12.39,48.896,12.39L48.896,12.39z M48.68,14.106
				c0-0.119,0.097-0.216,0.216-0.216c0.116,0,0.212,0.097,0.212,0.216C49.108,14.349,48.679,14.344,48.68,14.106L48.68,14.106z"/>
		</g>
	</g>
</g>
</svg>

<?xml version="1.0" encoding="UTF-8" standalone="no"?>
<svg width="45px" height="45px" viewBox="0 0 45 45" version="1.1" xmlns="http://www.w3.org/2000/svg" xmlns:xlink="http://www.w3.org/1999/xlink" xmlns:sketch="http://www.bohemiancoding.com/sketch/ns">
    <!-- Generator: Sketch 3.2.2 (9983) - http://www.bohemiancoding.com/sketch -->
    <title>Fill 152</title>
    <desc>Created with Sketch.</desc>
    <defs></defs>
    <g id="UI" stroke="none" stroke-width="1" fill="none" fill-rule="evenodd" sketch:type="MSPage">
        <g id="Toolbox-Expanded" sketch:type="MSArtboardGroup" transform="translate(-447.000000, -208.000000)" fill="#000000">
            <g id="Add-a-story-+-Fill-152" sketch:type="MSLayerGroup" transform="translate(417.000000, 208.000000)">
                <path d="M56.348,12.39 C55.403,12.39 54.633,13.16 54.633,14.106 C54.633,15.052 55.403,15.821 56.348,15.821 C57.294,15.821 58.064,15.052 58.064,14.106 C58.064,13.16 57.294,12.39 56.348,12.39 L56.348,12.39 Z M56.133,14.106 C56.133,13.987 56.23,13.89 56.348,13.89 C56.467,13.89 56.564,13.987 56.564,14.106 C56.564,14.344 56.133,14.346 56.133,14.106 L56.133,14.106 Z M71.785,6.46 L69.814,6.46 C69.4,6.46 69.064,6.796 69.064,7.21 C69.064,7.624 69.4,7.96 69.814,7.96 L71.761,7.96 C72.461,7.981 73.01,8.546 73.01,9.243 L73.01,31.156 C73.01,31.855 72.461,32.42 71.785,32.441 L66.975,32.441 C66.561,32.441 66.225,32.777 66.225,33.191 L66.225,42.587 L55.046,32.64 C54.909,32.519 54.732,32.452 54.548,32.451 L48.787,32.441 C48.787,32.441 48.787,32.441 48.786,32.441 C48.372,32.441 48.037,32.776 48.036,33.19 C48.035,33.604 48.371,33.941 48.784,33.941 L54.262,33.951 L66.476,44.818 C66.617,44.942 66.795,45.008 66.975,45.008 C67.079,45.008 67.183,44.986 67.283,44.941 C67.552,44.821 67.725,44.552 67.725,44.258 L67.725,33.941 L71.808,33.941 C73.324,33.893 74.51,32.671 74.51,31.156 L74.51,9.243 C74.51,7.73 73.324,6.508 71.785,6.46 L71.785,6.46 Z M41.445,12.39 C40.499,12.39 39.729,13.16 39.729,14.106 C39.729,15.052 40.499,15.821 41.445,15.821 C42.391,15.821 43.16,15.052 43.16,14.106 C43.16,13.16 42.391,12.39 41.445,12.39 L41.445,12.39 Z M41.229,14.106 C41.229,13.987 41.326,13.89 41.445,13.89 C41.564,13.89 41.66,13.987 41.66,14.106 C41.66,14.344 41.23,14.344 41.229,14.106 L41.229,14.106 Z M65.121,27.483 C66.658,27.483 67.909,26.233 67.909,24.698 L67.909,2.785 C67.909,1.249 66.658,0 65.121,0 L32.703,0.002 C31.187,0.05 30,1.271 30,2.785 L30,24.698 C30,26.214 31.187,27.436 32.726,27.482 L36.786,27.482 L36.786,37.799 C36.786,38.094 36.959,38.362 37.229,38.483 C37.328,38.527 37.432,38.549 37.536,38.549 C37.716,38.549 37.894,38.484 38.034,38.359 L50.249,27.492 L65.121,27.483 L65.121,27.483 Z M49.464,26.181 L38.286,36.128 L38.286,26.732 C38.286,26.318 37.95,25.982 37.536,25.982 L32.749,25.983 C32.048,25.962 31.5,25.397 31.5,24.698 L31.5,2.785 C31.5,2.087 32.048,1.523 32.726,1.502 L65.121,1.5 C65.832,1.5 66.409,2.076 66.409,2.785 L66.409,24.698 C66.409,25.406 65.832,25.983 65.121,25.983 L49.962,25.992 C49.779,25.992 49.601,26.059 49.464,26.181 L49.464,26.181 Z M48.896,12.39 C47.95,12.39 47.18,13.16 47.18,14.106 C47.18,15.052 47.95,15.821 48.896,15.821 C49.84,15.821 50.608,15.052 50.608,14.106 C50.608,13.16 49.84,12.39 48.896,12.39 L48.896,12.39 Z M48.68,14.106 C48.68,13.987 48.777,13.89 48.896,13.89 C49.012,13.89 49.108,13.987 49.108,14.106 C49.108,14.349 48.679,14.344 48.68,14.106 L48.68,14.106 Z" id="Fill-152" sketch:type="MSShapeGroup"></path>
            </g>
        </g>
    </g>
</svg>
